X:236
T: SEHT IHR DREI ROSSE
N: B0723
O: Europa, Mitteleuropa, Deutschland; Russland
R: Abschieds - Lied, Klage
M: 3/4
L: 1/8
K: Eb
BBB | B3AAA | A2G
GGG | G3FCD | E2z
EGB | e3dc=B | d2c
FG=A | c3BFG | E2z
EGB | e3dc=B | d2c
FG=A | c3BFG | E2z

